X:2
T:Pop Goes The Weasel
M:6/8
L:1/8
Z:Dave Holland <dave@biff.org.uk>
K:D
P:A
"D"D2F "A"E2G|"D"FAF D3|"D"D2F "A"E2G|"D"F3 D3|\
"D"D2F "A"E2G|"D"FAF D3|"G"Bz2 "A"E2G|"D"F3 D3:|
P:B
"Bm"d2c B2d|"A"cec A3|"G"d2c B2d|"F#m"c3 A3|\
"Em"G2F G2A|"D"B2c "Bm"d3|"G"Bz2 "A"E2G|"D"F3 D3:|

